Origami/32x32/apps/bibletime.svg

<svg width="32" height="32" version="1.1" viewBox="0 0 32 32" xmlns="http://www.w3.org/2000/svg">
 <path d="m6.5 3c-0.831 0-1.5 0.669-1.5 1.5v25c0 0.831 0.669 1.5 1.5 1.5h19c0.831 0 1.5-0.669 1.5-1.5v-25c0-0.831-0.669-1.5-1.5-1.5z" style="opacity:.2"/>
 <path d="m6.5 2c-0.831 0-1.5 0.669-1.5 1.5v25c0 0.831 0.669 1.5 1.5 1.5h19c0.831 0 1.5-0.669 1.5-1.5v-25c0-0.831-0.669-1.5-1.5-1.5z" style="fill:#3d65c2"/>
 <path d="m6.5 2c-0.831 0-1.5 0.669-1.5 1.5v25c0 0.831 0.669 1.5 1.5 1.5h2.5v-28z" style="opacity:.2"/>
 <path d="m16 7v5h-5v4h5v11h4v-11h5v-4h-5v-5z" style="opacity:.2"/>
 <rect x="16" y="6" width="4" height="20" style="fill:#ffd972"/>
 <rect transform="rotate(90)" x="11" y="-25" width="4" height="14" style="fill:#ffd972"/>
 <path d="m6.5 2c-0.831 0-1.5 0.669-1.5 1.5v1c0-0.831 0.669-1.5 1.5-1.5h19c0.831 0 1.5 0.669 1.5 1.5v-1c0-0.831-0.669-1.5-1.5-1.5h-19z" style="fill:#ffffff;opacity:.1"/>
 <circle cx="24" cy="23" r="8" style="fill-rule:evenodd;fill:#ff982d"/>
 <path d="M 31.979,23.424 A 8,8 0 0 1 24,31 8,8 0 0 1 16.021,23.576 8,8 0 0 0 16,24 a 8,8 0 0 0 8,8 8,8 0 0 0 8,-8 8,8 0 0 0 -0.021,-0.576 z" style="fill-rule:evenodd;opacity:.2"/>
 <path d="m24 18a5 5 0 0 0 -5 5 5 5 0 0 0 5 5 5 5 0 0 0 5 -5 5 5 0 0 0 -5 -5zm0 1a3.9999996 3.9999996 0 0 1 4 4 3.9999996 3.9999996 0 0 1 -4 4 3.9999996 3.9999996 0 0 1 -4 -4 3.9999996 3.9999996 0 0 1 4 -4z" style="fill:#ffffff"/>
 <path d="m23 20v4h4v-1h-3v-3z" style="fill:#ffffff"/>
</svg>

<svg xmlns="http://www.w3.org/2000/svg" width="32" height="32" version="1.1" viewBox="0 0 32 32">
 <path style="opacity:0.2" d="M 6.5,3 C 5.669,3 5,3.669 5,4.5 v 25 C 5,30.331 5.669,31 6.5,31 h 19 C 26.331,31 27,30.331 27,29.5 V 4.5 C 27,3.669 26.331,3 25.5,3 Z"/>
 <path style="fill:#3d65c2" d="M 6.5,2 C 5.669,2 5,2.669 5,3.5 v 25 C 5,29.331 5.669,30 6.5,30 h 19 C 26.331,30 27,29.331 27,28.5 V 3.5 C 27,2.669 26.331,2 25.5,2 Z"/>
 <path style="opacity:0.2" d="M 6.5,2 C 5.669,2 5,2.669 5,3.5 v 25 C 5,29.331 5.669,30 6.5,30 H 9 V 2 Z"/>
 <path style="opacity:0.2" d="m 16,7 v 5 h -5 v 4 h 5 v 11 h 4 V 16 h 5 V 12 H 20 V 7 Z"/>
 <rect style="fill:#ffd972" width="4" height="20" x="16" y="6"/>
 <rect style="fill:#ffd972" width="4" height="14" x="11" y="-25" transform="rotate(90)"/>
 <path style="fill:#ffffff;opacity:0.1" d="M 6.5 2 C 5.669 2 5 2.669 5 3.5 L 5 4.5 C 5 3.669 5.669 3 6.5 3 L 25.5 3 C 26.331 3 27 3.669 27 4.5 L 27 3.5 C 27 2.669 26.331 2 25.5 2 L 6.5 2 z"/>
 <circle style="fill:#ff982d;fill-rule:evenodd" cx="24" cy="23" r="8"/>
 <path style="opacity:0.2;fill-rule:evenodd" d="M 31.979,23.424 A 8,8 0 0 1 24,31 8,8 0 0 1 16.021,23.576 8,8 0 0 0 16,24 a 8,8 0 0 0 8,8 8,8 0 0 0 8,-8 8,8 0 0 0 -0.021,-0.576 z"/>
 <path style="fill:#ffffff" d="M 24 18 A 5 5 0 0 0 19 23 A 5 5 0 0 0 24 28 A 5 5 0 0 0 29 23 A 5 5 0 0 0 24 18 z M 24 19 A 3.9999996 3.9999996 0 0 1 28 23 A 3.9999996 3.9999996 0 0 1 24 27 A 3.9999996 3.9999996 0 0 1 20 23 A 3.9999996 3.9999996 0 0 1 24 19 z"/>
 <path style="fill:#ffffff" d="m 23,20 v 3 1 h 1 3 v -1 h -3 v -3 z"/>
</svg>
